Images/logo/heart-svgrepo-com.svg

<?xml version="1.0" standalone="no"?>
<!DOCTYPE svg PUBLIC "-//W3C//DTD SVG 1.0//EN" "http://www.w3.org/TR/2001/REC-SVG-20010904/DTD/svg10.dtd">
<svg xmlns="http://www.w3.org/2000/svg" xmlns:xlink="http://www.w3.org/1999/xlink" id="body_1" width="40" height="30">

<g transform="matrix(0.3921569 0 0 0.38961038 0 0)">
	<g transform="matrix(0.163239 0 0 0.163239 12.499999 -0)">
		<g>
            <path d="M433.601 67.001C 408.901 42.301 376.20102 28.800999 341.30103 28.800999C 306.40103 28.800999 273.601 42.401 248.90103 67.101L248.90103 67.101L236.00104 80.001L222.90103 66.901C 198.20103 42.201 165.30103 28.501 130.40103 28.501C 95.60103 28.501 62.801033 42.100998 38.201035 66.701004C 13.501034 91.401 -0.09896469 124.201004 0.001033783 159.10101C 0.001033783 194.001 13.701034 226.70102 38.401035 251.40102L38.401035 251.40102L226.20103 439.20102C 228.80104 441.80103 232.30104 443.20102 235.70103 443.20102C 239.10103 443.20102 242.60103 441.90103 245.20103 439.30103L245.20103 439.30103L433.40103 251.80103C 458.10104 227.10103 471.70102 194.30103 471.70102 159.40103C 471.801 124.501 458.301 91.701 433.601 67.001zM414.401 232.701L235.701 410.701L57.401 232.40099C 37.801003 212.80098 27.001001 186.801 27.001001 159.10098C 27.001001 131.40097 37.701 105.400986 57.301003 85.900986C 76.801 66.400986 102.801 55.600986 130.401 55.600986C 158.101 55.600986 184.201 66.400986 203.801 86.000984L203.801 86.000984L226.401 108.60098C 231.701 113.900986 240.201 113.900986 245.501 108.60098L245.501 108.60098L267.901 86.20098C 287.501 66.60098 313.601 55.80098 341.201 55.80098C 368.801 55.80098 394.801 66.60098 414.401 86.10098C 434.001 105.70098 444.701 131.70099 444.701 159.40099C 444.801 187.101 434.001 213.101 414.401 232.701z" stroke="none" fill="#000000" fill-rule="nonzero" />
		</g>
	</g>
</g>
</svg>

<?xml version="1.0" encoding="iso-8859-1"?>
<!-- Generator: Adobe Illustrator 19.1.0, SVG Export Plug-In . SVG Version: 6.00 Build 0)  -->
<svg version="1.1" id="Capa_1" xmlns="http://www.w3.org/2000/svg" xmlns:xlink="http://www.w3.org/1999/xlink" x="0px" y="0px"
	 viewBox="0 0 471.701 471.701" style="enable-background:new 0 0 471.701 471.701;" xml:space="preserve">
<g>
	<path d="M433.601,67.001c-24.7-24.7-57.4-38.2-92.3-38.2s-67.7,13.6-92.4,38.3l-12.9,12.9l-13.1-13.1
		c-24.7-24.7-57.6-38.4-92.5-38.4c-34.8,0-67.6,13.6-92.2,38.2c-24.7,24.7-38.3,57.5-38.2,92.4c0,34.9,13.7,67.6,38.4,92.3
		l187.8,187.8c2.6,2.6,6.1,4,9.5,4c3.4,0,6.9-1.3,9.5-3.9l188.2-187.5c24.7-24.7,38.3-57.5,38.3-92.4
		C471.801,124.501,458.301,91.701,433.601,67.001z M414.401,232.701l-178.7,178l-178.3-178.3c-19.6-19.6-30.4-45.6-30.4-73.3
		s10.7-53.7,30.3-73.2c19.5-19.5,45.5-30.3,73.1-30.3c27.7,0,53.8,10.8,73.4,30.4l22.6,22.6c5.3,5.3,13.8,5.3,19.1,0l22.4-22.4
		c19.6-19.6,45.7-30.4,73.3-30.4c27.6,0,53.6,10.8,73.2,30.3c19.6,19.6,30.3,45.6,30.3,73.3
		C444.801,187.101,434.001,213.101,414.401,232.701z"/>
</g>
</svg>
